X:192
T: IN MORGENROT GEKLEIDET
N: F0335
O: Europa, Mitteleuropa, Deutschland
R: Jugend - Lied, Tageszeiten, Morgen, religioes
M: 6/8
L: 1/16
K: C
E,2 | E,4G,2G,4C2 | C6G,4
G,2 | A,3G,C2C4A,2 | G,8z2
G,2 | G,4B,2B,4D2 | F6D4
D2 | E4E2D2E2D2 | C8z2

@@@ Tune index: 5623
